X:1295
T:The Hunter's Purse
S:Trad, arr. Paddy O'Brien
M:4/4
L:1/8
K:G
Bd|: eAAB AGEF|G2AF GE D2|cBcd efed|cdef gedB|
A2GB AGEF|GBAF GE D2|cBcd efed|cABG A2 Bd:|
eaab agef|geaf gedB|cBcd (3efg ed|cdef g2ed|
eaab aged|g2 af gedB|cBcd efed|cABG A2 Bd:|
